Production/EA4S_WordDrawings/SVG/singles_SVG/triangle.svg

<?xml version="1.0" encoding="UTF-8" standalone="no"?><!DOCTYPE svg PUBLIC "-//W3C//DTD SVG 1.1//EN" "http://www.w3.org/Graphics/SVG/1.1/DTD/svg11.dtd"><svg width="100%" height="100%" viewBox="0 0 567 352" version="1.1" xmlns="http://www.w3.org/2000/svg" xmlns:xlink="http://www.w3.org/1999/xlink" xml:space="preserve" style="fill-rule:evenodd;clip-rule:evenodd;stroke-linejoin:round;stroke-miterlimit:1.41421;"><g id="triangle"><path d="M270.07,2.254c-21.509,9.73 -36.87,30.521 -50.231,49.213c-14.313,20.02 -27.686,40.465 -43.031,59.734c-39.77,49.941 -84.079,96.277 -122.881,146.971c-8.219,10.738 -16.152,21.691 -24.26,32.512c-8.316,11.102 -17.516,21.48 -25.916,32.484c-3.511,4.6 -0.563,9.941 4.711,10.854c6.422,1.113 12.664,-2.272 16.533,-7.174c3.362,-4.26 3.274,-8.23 -0.338,-12.031c-2.176,-2.289 -6.662,-1.738 -9.184,-0.498c-3.684,1.815 -6.917,3.703 -9.877,6.623c5.852,2.711 11.701,5.422 17.553,8.133c10.656,-10.838 19.519,-23.98 28.428,-36.256c8.957,-12.34 17.709,-24.828 26.892,-37.004c18.887,-25.045 39.786,-48.637 60.036,-72.575c20.858,-24.659 41.614,-49.419 61.467,-74.899c14.591,-18.727 26.379,-39.412 39.873,-58.91c10.11,-14.607 21.083,-29.036 35.494,-39.683c6.283,-4.642 1.153,-10.4 -5.269,-7.494Z" style="fill:#010101;fill-rule:nonzero;"/><path d="M270.467,6.286c6.79,14.455 16.812,26.418 26.918,38.717c10.333,12.574 20.658,25.153 30.965,37.748c20.746,25.351 41.637,50.58 62.426,75.896c20.802,25.329 41.508,50.753 61.779,76.509c10.199,12.957 20.307,25.985 30.551,38.905c9.401,11.855 17.525,24.644 27.075,36.373c5.056,6.209 10.464,11.998 16.201,17.573c2.408,2.34 4.829,4.669 7.124,7.12c0.6,0.64 5.189,3.426 2.885,1.853c0.11,0.087 0.221,0.173 0.33,0.259c-1.227,-1.845 -1.113,-1.711 0.342,0.402c1.278,1.227 2.436,1.461 4.109,1.9c-0.121,-4.463 -0.242,-8.926 -0.363,-13.389c-0.045,0.035 -0.09,0.068 -0.136,0.104c1.841,-0.8 3.683,-1.599 5.522,-2.397c-0.078,0.012 -0.156,0.022 -0.234,0.034c-4.609,0.684 -10.776,5.17 -10.711,10.31c0.072,5.715 6.884,5.836 10.896,5.241c0.727,-0.108 10.447,-3.836 3.336,-1.13c4.221,-1.606 7.355,-5.095 7.992,-9.53c1.062,-7.392 -10,-14.105 -14.588,-18.27c-8.867,-8.047 -16.43,-17.229 -23.284,-27.027c-18.569,-26.543 -39.657,-51.606 -59.993,-76.834c-41.146,-51.045 -83.652,-100.955 -126.887,-150.236c-16.734,-19.076 -32.584,-40.132 -53.283,-55.01c-2.796,-2.012 -11.013,0.537 -8.972,4.879Z" style="fill:#010101;fill-rule:nonzero;"/><path d="M4.56,335.95c16.377,1.15 32.858,0.507 49.269,0.599c16.518,0.093 33.033,0.12 49.55,0.339c33.088,0.44 66.169,1.027 99.261,1.192c32.98,0.163 65.951,-0.94 98.927,-0.74c31.646,0.19 63.267,1.913 94.776,4.804c28.94,2.654 57.924,4.17 86.954,5.436c10.967,0.479 21.825,-0.55 32.767,-1.182c9.593,-0.553 20.148,-1.214 29.212,2.537c2.814,-5.759 5.629,-11.518 8.443,-17.277c-5.247,1.068 -10.315,2.713 -15.521,3.93c-3.914,0.914 -8.254,3.58 -9.581,7.598c-1.233,3.731 1.423,6.21 4.813,6.983c6.965,1.59 13.579,0.679 20.499,-0.729c4.131,-0.841 8.359,-3.472 10.688,-7.021c2.294,-3.498 2.111,-8.453 -2.244,-10.256c-12.186,-5.045 -25.616,-5.128 -38.591,-4.518c-12.836,0.604 -25.404,1.654 -38.267,1.093c-32.113,-1.403 -64.017,-4.024 -96.052,-6.515c-65.569,-5.096 -131.07,-2.105 -196.74,-2.408c-29.872,-0.137 -59.737,-0.41 -89.609,-0.261c-15.289,0.077 -30.587,0.161 -45.869,0.604c-15.403,0.447 -30.955,0.578 -46.239,2.664c-3.827,0.523 -7.616,1.905 -9.843,5.301c-2.064,3.145 -0.801,7.532 3.397,7.827Z" style="fill:#010101;fill-rule:nonzero;"/></g></svg>

<?xml version="1.0" encoding="UTF-8"?>
<svg width="567px" height="351px" viewBox="0 0 567 351" version="1.1" xmlns="http://www.w3.org/2000/svg" xmlns:xlink="http://www.w3.org/1999/xlink">
    <!-- Generator: Sketch 41 (35326) - http://www.bohemiancoding.com/sketch -->
    <title>triangle</title>
    <desc>Created with Sketch.</desc>
    <defs></defs>
    <g id="Page-1" stroke="none" stroke-width="1" fill="none" fill-rule="evenodd">
        <g id="Layer_1" transform="translate(-6059.000000, -6202.000000)" fill="#010101">
            <g id="Layer_1_3_">
                <g id="triangle" transform="translate(6059.000000, 6202.000000)">
                    <path d="M270.07,2.254 C248.561,11.984 233.2,32.775 219.839,51.467 C205.526,71.487 192.153,91.932 176.808,111.201 C137.038,161.142 92.729,207.478 53.927,258.172 C45.708,268.91 37.775,279.863 29.667,290.684 C21.351,301.786 12.151,312.164 3.751,323.168 C0.24,327.768 3.188,333.109 8.462,334.022 C14.884,335.135 21.126,331.75 24.995,326.848 C28.357,322.588 28.269,318.618 24.657,314.817 C22.481,312.528 17.995,313.079 15.473,314.319 C11.789,316.134 8.556,318.022 5.596,320.942 C11.448,323.653 17.297,326.364 23.149,329.075 C33.805,318.237 42.668,305.095 51.577,292.819 C60.534,280.479 69.286,267.991 78.469,255.815 C97.356,230.77 118.255,207.178 138.505,183.24 C159.363,158.581 180.119,133.821 199.972,108.341 C214.563,89.614 226.351,68.929 239.845,49.431 C249.955,34.824 260.928,20.395 275.339,9.748 C281.622,5.106 276.492,-0.652 270.07,2.254 L270.07,2.254 Z" id="Shape"></path>
                    <path d="M270.467,6.286 C277.257,20.741 287.279,32.704 297.385,45.003 C307.718,57.577 318.043,70.156 328.35,82.751 C349.096,108.102 369.987,133.331 390.776,158.647 C411.578,183.976 432.284,209.4 452.555,235.156 C462.754,248.113 472.862,261.141 483.106,274.061 C492.507,285.916 500.631,298.705 510.181,310.434 C515.237,316.643 520.645,322.432 526.382,328.007 C528.79,330.347 531.211,332.676 533.506,335.127 C534.106,335.767 538.695,338.553 536.391,336.98 C536.501,337.067 536.612,337.153 536.721,337.239 C535.494,335.394 535.608,335.528 537.063,337.641 C538.341,338.868 539.499,339.102 541.172,339.541 C541.051,335.078 540.93,330.615 540.809,326.152 C540.764,326.187 540.719,326.22 540.673,326.256 C542.514,325.456 544.356,324.657 546.195,323.859 C546.117,323.871 546.039,323.881 545.961,323.893 C541.352,324.577 535.185,329.063 535.25,334.203 C535.322,339.918 542.134,340.039 546.146,339.444 C546.873,339.336 556.593,335.608 549.482,338.314 C553.703,336.708 556.837,333.219 557.474,328.784 C558.536,321.392 547.474,314.679 542.886,310.514 C534.019,302.467 526.456,293.285 519.602,283.487 C501.033,256.944 479.945,231.881 459.609,206.653 C418.463,155.608 375.957,105.698 332.722,56.417 C315.988,37.341 300.138,16.285 279.439,1.407 C276.643,-0.605 268.426,1.944 270.467,6.286 L270.467,6.286 Z" id="Shape"></path>
                    <path d="M4.56,335.95 C20.937,337.1 37.418,336.457 53.829,336.549 C70.347,336.642 86.862,336.669 103.379,336.888 C136.467,337.328 169.548,337.915 202.64,338.08 C235.62,338.243 268.591,337.14 301.567,337.34 C333.213,337.53 364.834,339.253 396.343,342.144 C425.283,344.798 454.267,346.314 483.297,347.58 C494.264,348.059 505.122,347.03 516.064,346.398 C525.657,345.845 536.212,345.184 545.276,348.935 C548.09,343.176 550.905,337.417 553.719,331.658 C548.472,332.726 543.404,334.371 538.198,335.588 C534.284,336.502 529.944,339.168 528.617,343.186 C527.384,346.917 530.04,349.396 533.43,350.169 C540.395,351.759 547.009,350.848 553.929,349.44 C558.06,348.599 562.288,345.968 564.617,342.419 C566.911,338.921 566.728,333.966 562.373,332.163 C550.187,327.118 536.757,327.035 523.782,327.645 C510.946,328.249 498.378,329.299 485.515,328.738 C453.402,327.335 421.498,324.714 389.463,322.223 C323.894,317.127 258.393,320.118 192.723,319.815 C162.851,319.678 132.986,319.405 103.114,319.554 C87.825,319.631 72.527,319.715 57.245,320.158 C41.842,320.605 26.29,320.736 11.006,322.822 C7.179,323.345 3.39,324.727 1.163,328.123 C-0.901,331.268 0.362,335.655 4.56,335.95 L4.56,335.95 Z" id="Shape"></path>
                </g>
            </g>
        </g>
    </g>
</svg>
